!!!COM: Jules Massenet
!!!CNT: Francais
!!!TXO: Francais
!!!OTL: Dans l'air plein de fils de soie
!!!LYR: Armand Silvestre
!!!OPR: Poe2me du Souvenir
!!!ONM: No. 4
!!!ENC: Jacob Pegg
!!!YOR: Romantic French Song 1830-1870 - David Tunley, ed.,
!!!YOR: New York: Garland Publishing, Inc., 1995, Vol. 6
!!!ODT: 1868/
!!NB: Vocal melody and text only encoded.
!!NB: First instance of melodic material only encoded.
**kern	**silbe
*clef G2	*
*k[f#]	*
*M2/4	*
!!created: 12/15/03 0:17
!!proofed and posted: 12/15/03 13:35
!!edit time: 33 min.
=1	=1
2r	.
=2	=2
{(8ee	{Dans
8dd)	|
8b	l'air
16cc	plein
16b	de
=3	=3
16b	fils
16a	de
4b	soi-
8g	-e
=4	=4
8a	Mon-
8b	-taient
8cc	les
8b	lys
=5	=5
16dd	pal-
16cc	-pi-
[8b	-tants,
16b]}	|}
16r	.
{8b	{Les
=6	=6
8ee	lys
8g#	que
8a	l'au-
16e	-be
16cc	de/-
=7	=7
(4cc	-ploy-
4f#)}	-e:}
=8	=8
4r	.
8r	.
{8b	{Ma
=9	=9
4.b	mi-
8b	-e e/-
=10	=10
(8cc#	-tait
8dd#)	|
8e	tou-
8cc#	-te
=11	=11
(2dd#	joy-
=12	=12
2cc#	|
=13	=13
4b)}	-e!}
4r	.
=14	=14
2r	.
=15	=15
{8ff#	{Oh!
16ee	le
16ddn	beau
(16ccn	jour
16b)	|
16a	de
16g	prin-
=16	=16
2ee}	-temps!}
=17	=17
{8ee	{oh!
16dd	le
16cc	beau
(16b	jour
16a)	|
16g	de
16f#	prin-
=18	=18
2b}	-temps!}
=19	=19
2r	.
!!20-37 previously stated
=38	=38
*k[b-e-]	*
{(8ee-	{L'air
8dd)	|
8b-	froid
16cc	qui
16b-	siffle
=39	=39
16b-	a\
16a	ma
4b-	por-
8g	-te,
=40	=40
8a	Seul,
8b-	bat
8cc	mon
8b-	seuil
=41	=41
16dd	en-
16cc	-tr'ou-
[8bn	-vert;
16bn]}	|}
16r	.
{8bn	{Ma
=42	=42
(8een	plain-
8g#)}	-te,}
16r	.
{16cc	{le
16cc	vent
16cc	l'em-
=43	=43
(4cc	-por-
4f#)}	-te!}
=44	=44
4r	.
8.r	.
{16bn	{Ma
=45	=45
2cc	Mie
=46	=46
8dd-	est
8ee-	peut~
8ff	~e^-
8dd-	-tre
=47	=47
(2ff	mor-
=48	=48
2cc	|
=49	=49
4f)}	-te!}
4r	.
=50	=50
2r	.
=51	=51
{(8ff	{Oh!
16ee-)	|
16ddn	le
16cc	tris-
16bn	-te
16a-	soir
16g	d'hy-
=52	=52
2ee-}	-ver!}
=53	=53
{(8ee-	{oh!
16dd)	|
!! 8dd halved to 16dd to match other figures, correct timing
16cc	le
16b-	tris-
16an	-te
16g	soir
16f#	d'hy-
=54	=54
2b-}	-ver!}
=55	=55
8r	.
{8d	{le
8d	tris-
8d	-te
=56	=56
[2d	soir
=57	=57
4d]	|
4c	d'hy-
=58	=58
[2d	-ver!
=59	=59
2d_	|
=60	=60
4d]}	|}
4r	.
*-	*-
